X:1
T:Ahime chi ti rinselva
T:Adriano Banchieri
T:Source : Canzonette a tre voci---Venetia---R.Amadino---1597. Editor : André Vierendeels (01/04/17).
T:Notes : Original clefs : C1, C1, C4 Editorial accidentals above the staff "Canzonetta del Cardillo. Terza  et ultima parte" See also the "Prima parte : Uccellin lescivetto" (same composer) And the "Seconda parte : Tu il sonno lusingando" (same composer)
T:Ahime chi ti rinselva
T:©
T:©
T:©
T:©
T:©
T:©
T:©
T:©
C:Adriano Banchieri
Z:©
%%score [ 1 2 3 ]
L:1/8
Q:1/4=86
M:4/4
K:F
V:1 treble nm="Soprano 1" snm="S 1"
V:2 treble nm="Soprano 2" snm="S 2"
V:3 treble-8 nm="Tenor" snm="T"
V:1
 A6 EF | G6 F2 | E2 F4 E2 | z4 G4- | G2 DE F4- | F2 E2 D4 | E2 G4 A2- | A2 G4 A2 | E2 E2 FEFG | %9
w: Ahi- me chi|ti rin-|sel- * va?|Ahi-|* me chi ti|_ rin- sel-|va? Ra- pa-|* ce, ra-|pa- c'e cru- * * *|
 AG F4 E2 | F4 c4- | c2 GA B4- | B2 A2 G4 | G2 E4 DC | D6 C2 | =B,2 C4 B,2 | C2 E4 F2- | F2 E4 F2 | %18
w: * * da bel-|va, ahi-|* me chi ti|_ rin- sel-|va, ahi- me chi|ti rin-|sel- * *|va, ra- pa-|* ce cru-|
 G2 c2 AGAB | c2 A2 G4 | A4 z2 A2- | A2 G4 G2 | c2 B2 A4 | =B8 | z4 G4 | A4 =B4 | c4 G2 GF | %27
w: |* da bel-|va, ahi-|* me che|te- co'an- co-|ra,|ahi|che lan-|guio co'l mio bel|
 E2 C2 E2 E2 | F2 FF C2 c2 | A2 F2 B2 BB | A2 c2 B2 d2 | c2 cB A2 B2 | A2 GF G4 | A4 A2 AG | %34
w: Sol l'au- ro- ra,|co'l mio bel Sol, l'au-|ro- ra, co'l mio bel|Sol l'au- ro- ra,|co'l mio bel Sol, l'au-|ro- * * *|ra, co'l mio bel|
 F2 A2 c2 c2 | A2 AA E2 E2 | F2 D2 F2 FG | AGFE D2 G2 | E2 F4 E2 | F4 z2 F2- | F2 E4 D2 | %41
w: Sol, l'au- ro- ra,|co'l mio bel Sol, l'au-|ro- ra, co'l mio bel|Sol, _ _ _ _ l'au-|ro- * *|ra, ahi-|* me che|
 E2 G2 ^F4 | G4 G4 | A4 =B4 | c4 G2 GF | E2 C2 D2 D2 | G2 GG A2 c2 | A2 A2 G2 GG | F2 A2 G2 G2 | %49
w: te- co'an- co-|ra, ahi|che lan-|guio, co'l mio bel|Sol, l'au- ro- ra,|co'l mio bel Sol, l'au-|ro- ra, co'l mio bel|Sol, l'au- ro- ra,|
 F2 FE DEFD | E2 E2 F4- | F2 ED E4 | F4 C4 | D4 E4 | F4 G4 | A4 B4 | c4 d4 | c3 B/A/ G4 | %58
w: co'l mio bel Sol, _ _ _|_ l'au- ro-||ra, ahi|che lan-|guio, co'l|mio bel|Sol, l'au-|ro- * * *|
 AAAA B2 c2 | dcBA B4- | B4 A2 G2 | A8 |] %62
w: ra, co'l mio bel Sol, l'au-|ro- * * * *||ra.|
V:2
 z4 c4- | c2 GA B4- | B2 A2 G4 | G2 E4 DC | D6 C2 | =B,2 C4 B,2 | C2 E4 F2- | F2 E4 F2 | %8
w: Ahi-|* me chi ti|_ rin- sel-|va? Ahi- me chi|ti rin-|sel- * *|va? Ra- pa-|* ce, ra-|
 G2 c2 AGAB | c2 A2 G4 | A2 A4 EF | G6 F2 | E2 F4 E2 | z4 G4- | G2 DE F4- | F2 E2 D4 | E2 G4 A2- | %17
w: pa- c'e cru- * * *|* da bel-|va, ahi- me chi|ti rin-|sel- * va,|ahi-|* me chi ti|_ rin- sel-|va, ra- pa-|
 A2 G4 A2 | E2 E2 FEFG | AG F4 E2 | F4 z2 F2- | F2 E4 D2 | E2 G2 ^F4 | G4 G4 | A4 =B4 | c4 G2 GF | %26
w: * ce cru-||* * da bel-|va, ahi-|* me che|te- co'an- co-|ra, ahi-|che lan-|guio co'l mio bel|
 E2 C2 D2 D2 | G2 GG A2 c2 | A2 A2 G2 GG | F2 A2 G2 G2 | F2 FE DEFD | E2 E2 F4- | F2 ED E4 | %33
w: Sol, l'au- ro- ra,|co'l mio bel Sol, l'au-|ro- ra, co'l mio bel|Sol, l'au- ro- ra,|co'l mio bel Sol, _ _ _|_ l'au- ro-||
 F4 C4 | D4 E4 | F4 G4 | A4 B4 | c4 d4 | c3 B/A/ G4 | A4 z2 A2- | A2 G4 G2 | c2 B2 A4 | =B8 | %43
w: ra, ahi|che lan-|guio co'l|mio bel|Sol, l'au-|ro- * * *|ra, ahi-|* me che|te- co'an- co-|ra,|
 z4 G4 | A4 =B4 | c4 G2 GF | E2 C2 E2 E2 | F2 FF C2 c2 | A2 F2 B2 BB | A2 c2 B2 d2 | c2 cB A2 B2 | %51
w: ahi|che lan-|guio, co'l mio bel|Sol, l'au- ro- ra,|co'l mio bel Sol, l'au-|ro- ra, co'l mio bel|Sol l'au- ro- ra,|co'l mio bel Sol, l'au-|
 A2 GF G4 | A4 A2 AG | F2 A2 c2 c2 | A2 AA E2 E2 | F2 D2 F2 FG | AGFE D2 G2 | E2 F4 E2 | F8- | %59
w: ro- * * *|ra, co'l mio bel|Sol, l'au- ro- ra,|co'l mio bel Sol, l'au-|ro- ra, co'l mio bel|Sol, _ _ _ _ l'au-|ro- * *|ra.|
 F8- | F8- | F8 |] %62
w: _|||
V:3
 F6 CD | _E6 D2 | C4 C4 | c6 GA | B6 A2 | G8 | C4 c4 | c4 c4 | c4 d4 | A3 B c4 | F2 F4 CD | %11
w: Ahi- me chi|ti rin-|sel- va?|ahi- me chi|ti rin-|sel-|va? Ra-|pa- c'e|cru- da|bel- * *|va, ahi- me chi|
 _E6 D2 | C4 C4 | c6 GA | B6 A2 | G8 | C4 c4 | c4 c4 | c4 d4 | A3 B c4 | F4 z2 F2- | F2 c4 B2 | %22
w: ti rin-|sel- va,|ahi- me chi|ti rin-|sel-|va, ra-|pa- c'e|cru- da|bel- * *|va, ahi-|* me che|
 A2 G2 d4 | G8 | z8 | z4 G4 | A4 =B4 | c4 C4 | D4 E4 | F4 G4 | A4 B4 | c4 d4 | c8 | F8 | z4 A2 AG | %35
w: te co'an- co-|ra,||ahi|che lan-|guio, ahi|che lan-|guio co'l|mio bel|Sol, l'au-|ro-|ra,|co'l mio bel|
 F2 A2 c2 c2 | F2 FE D2 d2 | c2 A2 B2 G2 | A3 B c4 | F4 z2 F2- | F2 c4 B2 | A2 G2 d4 | G8 | z8 | %44
w: Sol, l'au- ro- ra,|co'l mio bel Sol, co'l|mio bel Sol, l'au-|ro- * *|ra, ahi-|* me che|te- co'an- co-|ra,||
 z4 G4 | A4 =B4 | c4 C4 | D4 E4 | F4 G4 | A4 B4 | c4 d4 | c8 | F8 | z4 A2 AG | F2 A2 c2 c2 | %55
w: ahi|che lan-|guio, ahi|che lan|guio co'l|mio bel|Sol, l'au-|ro-|ra,|co'l mio bel|Sol, lau- ro- ra,|
 F2 FE D2 d2 | c2 A2 B2 G2 | A3 B c4 | FFFF B2 A2 | Bcdc BA B2 | F8- | F8 |] %62
w: co'l mio bel Sol, co'l|mio bel Sol, l'au-|ro- * *|ra, co'l mio bel Sol, l'au-|ro- * * * * * *|ra.|_|

